src/tune.svg

<svg width="24" height="24" viewBox="0 0 24 24" xmlns="http://www.w3.org/2000/svg" xmlns:xlink="http://www.w3.org/1999/xlink">
  <path d="M3 17v2h6v-2H3zM3 5v2h10V5H3zm10 16v-2h8v-2h-8v-2h-2v6h2zM7 9v2H3v2h4v2h2V9H7zm14 4v-2H11v2h10zm-6-4h2V7h4V5h-4V3h-2v6z" fill="currentColor"/>
</svg>

<svg width="24" height="24" viewBox="0 0 24 24" xmlns="http://www.w3.org/2000/svg">
<path fill-rule="evenodd" clip-rule="evenodd" d="M3 17V19H9V17H3V17ZM3 5V7H13V5H3V5ZM13 21V19H21V17H13V15H11V21H13V21ZM7 9V11H3V13H7V15H9V9H7V9ZM21 13V11H11V13H21V13ZM15 9H17V7H21V5H17V3H15V9V9Z" fill="currentColor"/>
</svg>
